content/multivariable-calculus/images/reverse-region.svg

<svg height="170.08pt" viewBox="0 0 170.08 170.08" width="170.08pt" xmlns="http://www.w3.org/2000/svg" xmlns:xlink="http://www.w3.org/1999/xlink"><clipPath id="a"><path d="m162 165h8.078125v5.078125h-8.078125zm0 0"/></clipPath><path d="m22.617188 1623.3v-1600.703125h1600.664062" style="fill:none;stroke-width:5;stroke-linecap:round;stroke-linejoin:round;stroke:#000;stroke-miterlimit:10" transform="matrix(.1 0 0 -.1 0 170.08)"/><path d="m22.617188 1698.3-20.117188-75h40.195312zm0 0" stroke="#000" stroke-linecap="round" stroke-linejoin="round" stroke-miterlimit="10" stroke-width="5" transform="matrix(.1 0 0 -.1 0 170.08)"/><path d="m169.828125 167.820312-7.5-2.007812v4.015625zm0 0"/><g clip-path="url(#a)"><path d="m1698.28125 22.596875-75 20.078125v-40.15625zm0 0" style="fill:none;stroke-width:5;stroke-linecap:round;stroke-linejoin:round;stroke:#000;stroke-miterlimit:10" transform="matrix(.1 0 0 -.1 0 170.08)"/></g><path d="m2.261719 167.820312h.835937l.417969-.003906.417969-.007812.421875-.007813.417969-.015625.417968-.023437.417969-.027344.421875-.035156.417969-.046875.417969-.054688.417968-.066406.421875-.078125.417969-.09375.417969-.105469.417969-.121094.421874-.136718.417969-.152344.417969-.171875.417969-.191406.421875-.210938.417968-.234375.417969-.253906.417969-.277344.421875-.300781.417969-.328125.417968-.351562.417969-.382813.417969-.40625.421875-.4375.417969-.46875.417968-.5.421876-.53125.417968-.5625.417969-.597656.417969-.632813.421875-.671875.417969-.707031.417968-.746094.417969-.78125.417969-.828125.421875-.863281.417969-.910156.417968-.949219.417969-.996094.421875-1.042969.417969-1.085937.417969-1.132813.417968-1.183593.421875-1.230469.417969-1.28125.417969-1.335938.417969-1.382812.421874-1.441406.417969-1.492188.417969-1.550781.417969-1.601563.421875-1.664062.417968-1.71875.417969-1.78125.417969-1.839844.421875-1.902344.417969-1.960937.417968-2.027344.417969-2.09375.421875-2.15625.417969-2.222656.417969-2.289063.417968-2.359374.421876-2.429688.417968-2.5.417969-2.566406.417969-2.644532.421875-2.714843.417969-2.789063.417968-2.867187.417969-2.941407.417969-3.019531.421875-3.097656.417969-3.179687.417968-3.257813.417969-3.335937.421875-3.421876.417969-3.507812.417969-3.589844.417968-3.671875.421875-3.761719.417969-3.847656.417969-3.941406.417969-4.027344.421874-4.113281.417969-4.210937.417969-4.300782.417969-4.394531.421875-4.488281.417968-4.585938.417969-4.679687.417969-4.78125.421875-4.878907.417969-4.976562v167.570312z" fill="#f5fefa"/><path d="m22.617188 22.596875h8.359374l4.179688.039063 4.179688.078125 4.21875.078125 4.179687.15625 4.179687.234375 4.179688.273437 4.21875.351563 4.179688.46875 4.179687.546875 4.179687.664062 4.21875.78125 4.179688.9375 4.179688 1.054688 4.179687 1.210937 4.21875 1.367188 4.179687 1.523437 4.179688 1.71875 4.179688 1.914063 4.21875 2.109375 4.179687 2.34375 4.179687 2.539062 4.179688 2.773438 4.21875 3.007812 4.179688 3.28125 4.179687 3.515625 4.179687 3.828125 4.179688 4.0625 4.21875 4.375 4.179688 4.6875 4.179687 5 4.21875 5.3125 4.179687 5.625 4.179688 5.976563 4.179688 6.328125 4.21875 6.71875 4.179687 7.070312 4.179687 7.460938 4.179688 7.8125 4.179688 8.28125 4.21875 8.632812 4.179687 9.101563 4.179687 9.492187 4.179688 9.960938 4.21875 10.429687 4.179688 10.859375 4.179687 11.328125 4.179687 11.835938 4.21875 12.304687 4.179688 12.8125 4.179688 13.359375 4.179687 13.828125 4.21875 14.414063 4.179687 14.921875 4.179688 15.507812 4.179688 16.015625 4.21875 16.640625 4.179687 17.1875 4.179687 17.8125 4.179688 18.398438 4.21875 19.023437 4.179688 19.609375 4.179687 20.273438 4.179687 20.9375 4.21875 21.5625 4.179688 22.226562 4.179688 22.890625 4.179687 23.59375 4.21875 24.296875 4.179687 25 4.179688 25.664063 4.179688 26.445312 4.21875 27.148438 4.179687 27.890625 4.179687 28.671875 4.179688 29.414062 4.179688 30.195313 4.21875 30.976562 4.179687 31.796875 4.179687 32.578125 4.179688 33.359375 4.21875 34.21875 4.179688 35.078125 4.179687 35.898438 4.179687 36.71875 4.21875 37.617187 4.179688 38.476563 4.179688 39.414062 4.179687 40.273438 4.21875 41.132812 4.179687 42.109375 4.179688 43.007813 4.179688 43.945312 4.21875 44.882813 4.179687 45.859375 4.179687 46.796875 4.179688 47.8125 4.21875 48.789062 4.179688 49.765625v-1675.703125zm0 0" style="fill:none;stroke-width:5;stroke-linecap:round;stroke-linejoin:round;stroke:#000;stroke-miterlimit:10" transform="matrix(.1 0 0 -.1 0 170.08)"/></svg>

<?xml version="1.0" encoding="UTF-8"?>
<svg xmlns="http://www.w3.org/2000/svg" xmlns:xlink="http://www.w3.org/1999/xlink" width="170.08pt" height="170.08pt" viewBox="0 0 170.08 170.08" version="1.1">
<defs>
<clipPath id="clip1">
  <path d="M 162 165 L 170.078125 165 L 170.078125 170.078125 L 162 170.078125 Z M 162 165 "/>
</clipPath>
</defs>
<g id="surface1">
<path style="fill:none;stroke-width:5;stroke-linecap:round;stroke-linejoin:round;stroke:rgb(0%,0%,0%);stroke-opacity:1;stroke-miterlimit:10;" d="M 22.617188 1623.3 L 22.617188 22.596875 L 1623.28125 22.596875 " transform="matrix(0.1,0,0,-0.1,0,170.08)"/>
<path style="fill-rule:nonzero;fill:rgb(0%,0%,0%);fill-opacity:1;stroke-width:5;stroke-linecap:round;stroke-linejoin:round;stroke:rgb(0%,0%,0%);stroke-opacity:1;stroke-miterlimit:10;" d="M 22.617188 1698.3 L 2.5 1623.3 L 42.695312 1623.3 Z M 22.617188 1698.3 " transform="matrix(0.1,0,0,-0.1,0,170.08)"/>
<path style=" stroke:none;fill-rule:nonzero;fill:rgb(0%,0%,0%);fill-opacity:1;" d="M 169.828125 167.820312 L 162.328125 165.8125 L 162.328125 169.828125 Z M 169.828125 167.820312 "/>
<g clip-path="url(#clip1)" clip-rule="nonzero">
<path style="fill:none;stroke-width:5;stroke-linecap:round;stroke-linejoin:round;stroke:rgb(0%,0%,0%);stroke-opacity:1;stroke-miterlimit:10;" d="M 1698.28125 22.596875 L 1623.28125 42.675 L 1623.28125 2.51875 Z M 1698.28125 22.596875 " transform="matrix(0.1,0,0,-0.1,0,170.08)"/>
</g>
<path style=" stroke:none;fill-rule:nonzero;fill:rgb(96.09375%,99.414062%,98.046875%);fill-opacity:1;" d="M 2.261719 167.820312 L 3.097656 167.820312 L 3.515625 167.816406 L 3.933594 167.808594 L 4.355469 167.800781 L 4.773438 167.785156 L 5.191406 167.761719 L 5.609375 167.734375 L 6.03125 167.699219 L 6.449219 167.652344 L 6.867188 167.597656 L 7.285156 167.53125 L 7.707031 167.453125 L 8.125 167.359375 L 8.542969 167.253906 L 8.960938 167.132812 L 9.382812 166.996094 L 9.800781 166.84375 L 10.21875 166.671875 L 10.636719 166.480469 L 11.058594 166.269531 L 11.476562 166.035156 L 11.894531 165.78125 L 12.3125 165.503906 L 12.734375 165.203125 L 13.152344 164.875 L 13.570312 164.523438 L 13.988281 164.140625 L 14.40625 163.734375 L 14.828125 163.296875 L 15.246094 162.828125 L 15.664062 162.328125 L 16.085938 161.796875 L 16.503906 161.234375 L 16.921875 160.636719 L 17.339844 160.003906 L 17.761719 159.332031 L 18.179688 158.625 L 18.597656 157.878906 L 19.015625 157.097656 L 19.433594 156.269531 L 19.855469 155.40625 L 20.273438 154.496094 L 20.691406 153.546875 L 21.109375 152.550781 L 21.53125 151.507812 L 21.949219 150.421875 L 22.367188 149.289062 L 22.785156 148.105469 L 23.207031 146.875 L 23.625 145.59375 L 24.042969 144.257812 L 24.460938 142.875 L 24.882812 141.433594 L 25.300781 139.941406 L 25.71875 138.390625 L 26.136719 136.789062 L 26.558594 135.125 L 26.976562 133.40625 L 27.394531 131.625 L 27.8125 129.785156 L 28.234375 127.882812 L 28.652344 125.921875 L 29.070312 123.894531 L 29.488281 121.800781 L 29.910156 119.644531 L 30.328125 117.421875 L 30.746094 115.132812 L 31.164062 112.773438 L 31.585938 110.34375 L 32.003906 107.84375 L 32.421875 105.277344 L 32.839844 102.632812 L 33.261719 99.917969 L 33.679688 97.128906 L 34.097656 94.261719 L 34.515625 91.320312 L 34.933594 88.300781 L 35.355469 85.203125 L 35.773438 82.023438 L 36.191406 78.765625 L 36.609375 75.429688 L 37.03125 72.007812 L 37.449219 68.5 L 37.867188 64.910156 L 38.285156 61.238281 L 38.707031 57.476562 L 39.125 53.628906 L 39.542969 49.6875 L 39.960938 45.660156 L 40.382812 41.546875 L 40.800781 37.335938 L 41.21875 33.035156 L 41.636719 28.640625 L 42.058594 24.152344 L 42.476562 19.566406 L 42.894531 14.886719 L 43.3125 10.105469 L 43.734375 5.226562 L 44.152344 0.25 L 44.152344 167.820312 L 2.261719 167.820312 "/>
<path style="fill:none;stroke-width:5;stroke-linecap:round;stroke-linejoin:round;stroke:rgb(0%,0%,0%);stroke-opacity:1;stroke-miterlimit:10;" d="M 22.617188 22.596875 L 30.976562 22.596875 L 35.15625 22.635938 L 39.335938 22.714063 L 43.554688 22.792188 L 47.734375 22.948438 L 51.914062 23.182813 L 56.09375 23.45625 L 60.3125 23.807813 L 64.492188 24.276563 L 68.671875 24.823438 L 72.851562 25.4875 L 77.070312 26.26875 L 81.25 27.20625 L 85.429688 28.260938 L 89.609375 29.471875 L 93.828125 30.839063 L 98.007812 32.3625 L 102.1875 34.08125 L 106.367188 35.995313 L 110.585938 38.104688 L 114.765625 40.448438 L 118.945312 42.9875 L 123.125 45.760938 L 127.34375 48.76875 L 131.523438 52.05 L 135.703125 55.565625 L 139.882812 59.39375 L 144.0625 63.45625 L 148.28125 67.83125 L 152.460938 72.51875 L 156.640625 77.51875 L 160.859375 82.83125 L 165.039062 88.45625 L 169.21875 94.432813 L 173.398438 100.760938 L 177.617188 107.479688 L 181.796875 114.55 L 185.976562 122.010938 L 190.15625 129.823438 L 194.335938 138.104688 L 198.554688 146.7375 L 202.734375 155.839063 L 206.914062 165.33125 L 211.09375 175.292188 L 215.3125 185.721875 L 219.492188 196.58125 L 223.671875 207.909375 L 227.851562 219.745313 L 232.070312 232.05 L 236.25 244.8625 L 240.429688 258.221875 L 244.609375 272.05 L 248.828125 286.464063 L 253.007812 301.385938 L 257.1875 316.89375 L 261.367188 332.909375 L 265.585938 349.55 L 269.765625 366.7375 L 273.945312 384.55 L 278.125 402.948438 L 282.34375 421.971875 L 286.523438 441.58125 L 290.703125 461.854688 L 294.882812 482.792188 L 299.101562 504.354688 L 303.28125 526.58125 L 307.460938 549.471875 L 311.640625 573.065625 L 315.859375 597.3625 L 320.039062 622.3625 L 324.21875 648.026563 L 328.398438 674.471875 L 332.617188 701.620313 L 336.796875 729.510938 L 340.976562 758.182813 L 345.15625 787.596875 L 349.335938 817.792188 L 353.554688 848.76875 L 357.734375 880.565625 L 361.914062 913.14375 L 366.09375 946.503125 L 370.3125 980.721875 L 374.492188 1015.8 L 378.671875 1051.698438 L 382.851562 1088.417188 L 387.070312 1126.034375 L 391.25 1164.510938 L 395.429688 1203.925 L 399.609375 1244.198438 L 403.828125 1285.33125 L 408.007812 1327.440625 L 412.1875 1370.448438 L 416.367188 1414.39375 L 420.585938 1459.276563 L 424.765625 1505.135938 L 428.945312 1551.932813 L 433.125 1599.745313 L 437.34375 1648.534375 L 441.523438 1698.3 L 441.523438 22.596875 Z M 22.617188 22.596875 " transform="matrix(0.1,0,0,-0.1,0,170.08)"/>
</g>
</svg>
